X: 2072
T: Âşık-ı Ger
C: Hüseyin Fahreddin Dede
O: Turkey
F: http://compmusic.upf.edu/node/140
N: acem--selam--devrikebir--asik-i_ger--huseyin_fahreddin_dede
N: makam= acem
N: form= selam
N: usul= devrikebir = 28/4
M: 28/4
L: 1/16
K: C _1/4B   
Q: 1/4=96
%%MIDI tuningsystem comma53
c4 f8 e2 f2 g2 g f f8  | c4 f2 e2 f2 g4 e f e2 d2 d2 e d d c c _2/4B  | 
w:  Â şık_ ı  *  *  *  *  ger   |  zin  ser_ *  *  *  u  *  *  *  ger  | 
c4 z2 c2 B2 c2 d e d2 e f e2 f g f2 g2 z2  | \
w:  *  zân  *  se rest   | 
f2 g2 a3 g f2 a2 g2 f2 e f g f f6 z2  | 
w:  be li  yâr_ *  *  i  men    | 
c4 f6 f2 e2 f2 g2 g f f8  | c4 f2 e2 f2 g4 e f e2 d2 d2 e d d c c _2/4B  | 
w:  Â *  kı bet  *  *  *  *  mâ  |  râ  *  be *  *  dân  *  *  *  sû   | 
c4 z2 c2 B2 c2 d e d2 e f e2 f e f g e3 d  | \
w:  *  reh *  be rest   | 
c2 d2 c3 _2/4B B A B A A6 z2 c8  | 
w:  be li  yâr_ *  i  *  *  *  men   Ah   | 
G2 c2 c6 c2 d4 e3 d c8  | c4 g6 a2 z2 e f e2 d2 d2 e d d c c B  | 
w:  il *  *  let_ i  *  *  aş  |  kı  zi  *  il *  *  *  let  | 
c4 z2 c2 B2 c2 d e d2 e f e2 f g f2 g2 z2  | \
w:  *  hâ  *  cu dâst   | 
f2 g2 a3 g f2 a2 g2 f2 e f g f f6 z2  | 
w:  be li  yâr_ *  *  i  men    | 
c4 f6 f2 e2 f2 g2 g f f8  | c4 f2 e2 f2 g2 z2 e f e2 d2 d2 e d d c c B  | 
w:  Işk_ *  ı  us *  *  *  *  tur  |  lâb_ *  *  *  ı  es *  *  *  râr_  | 
c4 z2 c2 B2 c2 d e d2 e f e2 f3/2e/ f g e3 d  | \
w:  *  ı  *  Hu dâst   | 
c4 d2 c3 _B B A {c}B A A6 z8  | 
w:  be li  yâr_ *  i  *  *  *  *  men    | 
z20  | c4g2fgfe _3/4d2e2c dc2B2  | c4_3/4d2efed efegf4z2  | 
w:  |  TERENNÜM  |   | 
efefg2_7/8a3g f2a2g4z2  | g_7/8agag fga{b}ag gffef4z2  | 
w:   |   | 
f4e2fgfe f2g_7/8ag fe2_3/4d2  | efe2_3/4d2efed e2fgf e_1/4d2z2  | 
w:   |   | 
c4_7/8a2g2a2 f2g2e4_3/4d2  | c4_3/4d2gfed c_BABc4z2  | \
w:   |   | 
c_1/4dc2_B2ABAG A2B2c2_7/8d2e2  | 
w:   | 
c_3/4dc2_B2cd{e}dc cBBAB4AG  | F4G2A4 _B4c2d2cB  | 
w:   |   | 
A4F2G3_7/8A GFFEF4z2  | z12  | g8-g2z2  | \
w:   |  |  Ah   | 
f2e2f2 g2g2_7/8a2  | gfe2f2 g4_7/8a2  | 
w:  ey  *  ki  he zâr   |  â *  *  fe rin   | 
gfe2f2 g6  | _7/8a3 ggf fee fe_3/4d  | \
w:  dost  *  *  *  dost   |  bu  *  ni *  ce  *  sul  | 
c2_3/4d2d2 c2B2dc  | 
w:  tân  *  o lur    | 
c4d2 e6  | d2c2d2 e2f2g2  | efe2d2 cdc2_2/4B2  | \
w:  *  *  Ah   |  ku *  lu  o lan   |  ki *  *  şi ler   | 
A4B2 G6  | G4e2 d2c4  | 
w:  câ *  nım   |  hus rev_ ü  hâ  | 
BcB2c2 A4B2  | G2A8B2  | G4e2 d2c4  | B4c2 Bc_2/4B2A2  | \
w:  kân  *  *  o lur    |  Yâr   |  hus rev_ ü  hâ  |  kân  o lur    | 
A8-A2z2  | 
w:   | 
g8-g2z2  | f2e2f2 g2g2_7/8a2  | gfe2f2 g4_7/8a2  | \
w:  Ah   |  ey  *  ki  he zâr   |  â *  *  fe rin   | 
gfe2f2 g6  | _7/8a3 ggf fee fe_3/4d  | 
w:  dost  *  *  *  dost   |  bu  *  ni *  ce  *  sul  | 
c2_3/4d2d2 c2B2dc  | c4d2 e6  | d2c2d2 e2f2g2  | \
w:  tân  *  o lur    |  *  *  Ah   |  ku *  lu  o lan   | 
efe2d2 cdc2_2/4B2  | 
w:  ki *  *  şi ler   | 
A4B2 G6  | G4e2 d2c4  | BcB2c2 A4B2  | G2A8B2  | \
w:  câ *  nım   |  hus rev_ ü  hâ  |  kân  *  *  o lur    |  Yâr   | 
G4e2 d2c4  | B4c2 Bc_2/4B2A2  | 
w:  hus rev_ ü  hâ  |  kân  o lur    | 
A8-A2z2  | G6 c6  | d6 e6  | e2d2c2 d2c2B2  | \
w:   |  SAZ  |   |   | 
d2c2_2/4B2 A2G4  | G6 c6  | d6 e6  | 
w:   |  SAZ  |   | 
e2d2c2 d2c2B2  | d4g2 ^f2g4  | g6 ^f4a2  | \
w:   |   |   | 
g2^f2_7/8e2 d2c4  | e2d2c2 d2c2_2/4B2  | 
w:   |   | 
c4f2 e2f4  | f4e2 d4a2  | g2^f2_7/8e2 d2c4  | \
w:   |   |   | 
d2c2B2 c2_2/4B2A2  | A8-A2z2  | 
w:   |   | 
G2A2A2 A2e3d  | c4_2/4B2 A2A4  | d4e2 d2g3^f  | \
w:  Ez  ev vel_ ü  im  |  rû zi  çü  â  |  şüf te  vü  mes  | 
e8-e2z2  | e2^f2g2 e2e3d  | 
w:  tîm    |  Â şüf te  bi gû  | 
d4e2 c2c3_2/4B  | A4B2 B2c3_2/4B  | A4e2 e6  | \
w:  yîm  *  ki  â  |  şüf te  şü des  |  tîm  *  ah   | 
A4d2 d2d4  | c2d2d2 d2d3^c  | 
w:  tim   *  Ah   |  yek  lâh za  be lâ   | 
^c4c2 c2d2c_7/8B  | _7/8B4A2 G2e4  | \
w:  nûş_ i  gâm_ ı   |  ışk_ ı  ka dî  | 
d2^c4 A2G2d2  | d2d2d2 d2d3^c  | 
w:  mim    |  Yek  lâh za  be lâ   | 
^c4c2 c2d2c_7/8B  | _7/8B4A2 G2e3d  | \
w:  nûş_ i  gâm_ ı   |  ışk_ ı  ka dî  | 
d4e6z2  | e2f2g2 e2e3d  | d4e2 c2c3_2/4B  | 
w:  mim    |  Yek  lâh za  be lî   |  gûy_ i  mü nâ  | 
A4B2 B2c3_2/4B  | A4e6z2  | e2f2g2 e2e3d  | \
w:  cât_ ı  e les  |  tim    |  Yek  lâh za  be lî   | 
d4e2 c2c3_2/4B  | A4B2 B2c3_2/4B  | 
w:  gûy_ i  mü nâ  |  cât_ ı  e les  | 
A8-A2z2  | a6 g6  | ^f4g2 fed4  | e^fe2f2 g2f2a2  | \
w:  tim    |  TERENNÜM  |   |   | 
g8-g2z2  | a6 g6  | 
w:   |  TERENNÜM  | 
^f4g2 fed4  | e^fe2f2 g2f2g2  | e8-e2z2  | \
w:   |   |   | 
e^fe2f2 g2e4  | 
w:   | 
e4d2 edc4  | ded cB2 cdc _2/4BA2  | c6 _2/4BAG4  | \
w:   |   |   | 
g6 ^fed4  | 
w:   | 
d4e2 dcB4  | c4B2 _2/4B4A2  | g8-g2z2  | \
w:   |   |   | 
g6 g2a4  | g2f2e2 d2c4  | d4e2 f6  | 
w:  Bâz  re sî  |  dim  *  *  zi  mey  |  hâ ne  mest    | 
f2e2f2 g2a4  | g2f2e2 e2e2d2  | d2e2c2 d6  | \
w:  Bâz  *  *  re hî  |  dim  *  *  zi  bâ  |  lâ  *  vü  pest    | 
e2f2a2 g2f4  | e4e2 d2d4  | 
w:  Cüm *  le  i  mes  |  tân  hoş_ u  rak  | 
c4_e2 d6  | c6 c2d4  | c4_B2 A2G2A2  | _B4A2 A6  | \
w:  sân  şu dest    |  Dest  ze nîd   |  ey  sa ne mâ   |  dest  *  dest    | 
c_3/4dc2B2 ABA2B2  | 
w:  TERENNÜM  | 
c_3/4dc2B2 cdc2B2  | c_3/4dc2B2 A2A4  | \
w:   |   | 
d6 cdc2d2  | BcB2c2 ABA2B2  | 
w:   |   | 
cdc2d2 BcB2c2  | A8-A2z2  | ABA2B2 c_3/4dc2B2  | \
w:   |   |   | 
ABA2B2 c2c4  | 
w:   | 
ABA2B2 c_3/4dc2B2  | ABA2B2 c2c4  | c4e2 _3/4d2c2B2  | \
w:   |  *  *  *  *  *  An   |  hâ ce  i  hoş   | 
c2_3/4d2e2 d2d2e2  | 
w:  li ka  *  çi  dâ  | 
e6 z2e2f2  | g4a2 g2f2e2  | e2f2e2 _3/4d2d3c  | \
w:  red   Bâ  |  zâr_ ı  me ra   |  be hâ  *  çi  dâ  | 
c6 z2c4  | c4e2 d2d3c  | 
w:  red   Ez   |  rah met_ i  Şems_  | 
c2c2c_B B2B cBA  | A6 z2A2_B2  | d2c2_B2 A2A2GF  | \
w:  ü  dîn_ *  *  i  Teb  |  rîz   Her   |  sî *  ne  cü dâ   | 
G2A2AG G2G3F  | 
w:  cü dâ  *  *  çi  dâ  | 
F4G2 A6  | A2G2F2 GAG2A2  | A6 B2G4  | c2_3/4d2dc cBA2B2  | 
w:  red   *  Ah   |  hey  *  yi  hey  *  *  yi   |  hey    |  Hey  *  *  *  yâr_ *  *  i   | 
c12  | c_3/4dc2d2 efe2f2  | g2_7/8a2g2 f2e2_3/4d2  | \
w:  men   |  dost  *  *  *  dost   |  dost   | 
c4_3/4d2 cBA2B2  | 
w:  dost   *  Pîr_ *  *  i   | 
c12  | c4e2 d4c2  | c2B2A2 A4GF  | G2A2G2 G2F2FE  | \
w:  men   |  ah  *  pîr_ i   |  men   |  dest  *  *  gîr  *  i   | 
F6 z2f4  | 
w:  men   Yâ   | 
f4a2 g2f3e  | e2e4 d2c4  | d4c2 d2e2de  | f12  | \
w:  Râb  zi  gü nâh_  |  ı  zişt_ i  hod   |  mün fe i lem    |   | 
f8a4  | g2f2e2 d2c4  | 
w:  Hey   |  hey   | 
a4g2 g2f2fe  | f6 z2f4  | f4f2 f2f3e  | \
w:  yâr_ i  yâr_ *  i   |  men   Ez   |  kavl_ i  bed_ ü   | 
e3 dd2 d2d3c  | c4c2 cB_2/4B2BA  | 
w:  fil_ *  i  bed_ i   |  hod  ha cî *  lem    | 
A12  | c6 c2d4  | c2_2/4B2A2 G2F4  | ABA2G2 G2F2FE  | \
w:   |  Hey   |  hey   |  yâr_ *  *  i  yâr_ *  i   | 
F6 z2f4  | f4a2 g2f3e  | 
w:  men   Fey   |  Râb  zi  gü nâh_  | 
e2e4 d2c4  | d4c2 d2e2de  | f12  | f8a4  | \
w:  ı  zişt_ i  hod   |  mün fe i lem    |   |  Hey   | 
g2f2e2 d2c4  | a4g2 g2f2fe  | 
w:  hey   |  yâr_ i  yâr_ *  i   | 
f6 z2f4  | f4f2 f2f3e  | e3 dd2 d2d3c  | \
w:  men   Ez   |  kavl_ i  bed_ ü   |  fil_ *  i  bed_ i   | 
c4c2 cB_2/4B2BA  | 
w:  hod  ha cî *  lem    | 
A12  | c6 c2d4  | c2_2/4B2A2 G2F4  | ABA2G2 G2F2FE  | \
w:   |  Hey   |  hey   |  yâr_ *  *  i  yâr_ *  i   | 
F8-F2z2  | |


